X:1
T:Katey Morey
M:6/8
L:1/8
K:C
 D| G2 A B2 D| G2 A B2 D| G2 AB-d B|A-G E- E2 D| G2 A B2 D| G2 A B2 B|\
 A2 G E2 D| E2 G G2 E| D2 B, B,A,B,| DDD DB,D| G2 G GAB| EEE E2||
